X:85
T:Polska efter Johan Lundin
T:Kryddpelles Polska
S:efter Johan Lundin
B:SMUS - katalog M6 bild 18 nr 85
Z:Nils L
R:Polska
O:Uppland
M:3/4
L:1/8
K:G
g/a/g/f/ gb dg | B/c/B/A/ Bd GB | DG Bd gb |1 a/b/a/g/ f/g/f/e/ d2 :|2
b/a/f/a/ a2 !fine!g2 |: f2 f2 fe/f/ | gd dc Bd | f2 f2 fe/f/ | g2 "^punkterad?"b2 g2 !D.C.! :|

